assets/icons/qvision/input.svg

<svg width="24" height="24" viewBox="0 0 24 24" fill="none" xmlns="http://www.w3.org/2000/svg">
<g clip-path="url(#clip0_147_4327)">
<path d="M21 3.01001H3C1.9 3.01001 1 3.91001 1 5.01001V9.00001H3V4.99001H21V19.02H3V15H1V19.01C1 20.11 1.9 20.99 3 20.99H21C22.1 20.99 23 20.11 23 19.01V5.01001C23 3.90001 22.1 3.01001 21 3.01001ZM11 16L15 12L11 8.00001V11H1V13H11V16Z" fill="#323232"/>
</g>
<defs>
<clipPath id="clip0_147_4327">
<rect width="24" height="24" fill="white"/>
</clipPath>
</defs>
</svg>

<svg xmlns="http://www.w3.org/2000/svg" height="24" viewBox="0 0 24 24" width="24"><path d="M0 0h24v24H0z" fill="none"/><path d="M21 3.01H3c-1.1 0-2 .9-2 2V9h2V4.99h18v14.03H3V15H1v4.01c0 1.1.9 1.98 2 1.98h18c1.1 0 2-.88 2-1.98v-14c0-1.11-.9-2-2-2zM11 16l4-4-4-4v3H1v2h10v3z"/></svg>
